svg/fluentui-system-icons/ic_fluent_bowl_salad_20_regular.svg

<svg width="20" height="20" viewBox="0 0 20 20" fill="none" xmlns="http://www.w3.org/2000/svg">
<path d="M6.92323 4.83327C7.51566 3.74137 8.67208 3 10.0017 3C11.3982 3 12.6037 3.81796 13.1653 5.00094C11.6362 5.03492 10.3329 5.98415 9.78151 7.32242C9.53132 6.90838 9.2307 6.51068 8.86938 6.14936C8.28657 5.56655 7.60997 5.1423 6.92323 4.83327ZM16.992 9C16.9975 8.91737 17.0002 8.83401 17.0002 8.75C17.0002 7.04145 15.8576 5.59978 14.2948 5.14742C13.7206 3.32306 12.0156 2 10.0017 2C8.24398 2 6.72168 3.00771 5.98097 4.47691C5.5592 4.34479 5.14832 4.24952 4.76842 4.1807C4.12729 4.06456 3.55955 4.02106 3.15126 4.00651C2.94678 3.99922 2.78138 3.99917 2.66568 4.00101C2.60457 4.00199 2.54351 4.00397 2.48245 4.0067L2.47917 4.00687L2.47804 4.00694C2.22503 4.02172 2.02229 4.22385 2.00727 4.47686L2.00718 4.47841C2.00373 4.54057 2.00219 4.60285 2.00114 4.66509C1.99919 4.78089 1.99909 4.94643 2.00619 5.1511C2.02036 5.55974 2.06337 6.12797 2.17901 6.76959C2.302 7.45198 2.51018 8.23424 2.86394 9H2.5C2.22386 9 2 9.22386 2 9.5V10C2 14.4183 5.58172 18 10 18C14.4183 18 18 14.4183 18 10V9.5C18 9.22386 17.7761 9 17.5 9H16.992ZM3.98443 9C3.55002 8.21794 3.30172 7.36103 3.16315 6.59222C3.05782 6.00782 3.0185 5.48866 3.00558 5.11643C3.00421 5.0767 3.00313 5.0387 3.00231 5.00251C3.03832 5.00336 3.07613 5.00447 3.11565 5.00588C3.48752 5.01913 4.00622 5.05891 4.59017 5.16469C5.76927 5.37828 7.15618 5.85037 8.16227 6.85647C8.77797 7.47217 9.19476 8.2319 9.47514 9H7.70835L5.85367 7.14635C5.65835 6.95114 5.34177 6.95123 5.14656 7.14655C4.95135 7.34186 4.95144 7.65844 5.14676 7.85365L6.29375 9H3.98443ZM10.5317 9C10.5231 8.97291 10.5143 8.94578 10.5053 8.91861C10.5019 8.86284 10.5002 8.80662 10.5002 8.75C10.5002 7.23122 11.7314 6 13.2502 6C14.769 6 16.0002 7.23122 16.0002 8.75C16.0002 8.83427 15.9964 8.91766 15.989 9H10.5317ZM3 10H17C17 10.695 16.8987 11.3663 16.7101 12H3.28988C3.10128 11.3663 3 10.695 3 10ZM10 17C7.2076 17 4.7971 15.3649 3.67363 13H16.3264C15.2029 15.3649 12.7924 17 10 17Z" fill="#212121"/>
</svg>

<svg xmlns="http://www.w3.org/2000/svg" width="20" height="20"><path d="M6.923 4.833a3.5 3.5 0 0 1 6.242.168 3.751 3.751 0 0 0-3.383 2.321 6.15 6.15 0 0 0-.913-1.173 6.506 6.506 0 0 0-1.946-1.316ZM16.992 9a3.752 3.752 0 0 0-2.697-3.853 4.502 4.502 0 0 0-8.314-.67 10.072 10.072 0 0 0-1.213-.296A11.462 11.462 0 0 0 2.666 4a6.399 6.399 0 0 0-.184.006h-.004a.501.501 0 0 0-.47.47v.001a9.51 9.51 0 0 0-.001.673c.013.409.056.977.172 1.619.123.682.331 1.464.685 2.23H2.5a.5.5 0 0 0-.5.5v.5a8 8 0 1 0 16 0v-.5a.5.5 0 0 0-.5-.5h-.508ZM3.984 9c-.434-.782-.682-1.639-.82-2.408a10.467 10.467 0 0 1-.162-1.59l.114.004c.372.013.89.053 1.474.159 1.18.213 2.566.685 3.572 1.691.616.616 1.033 1.376 1.313 2.144H7.708L5.854 7.146a.5.5 0 1 0-.707.708L6.294 9h-2.31Zm6.548 0a6.859 6.859 0 0 0-.027-.081A2.75 2.75 0 1 1 15.99 9h-5.457ZM3 10h14c0 .695-.101 1.366-.29 2H3.29A7.001 7.001 0 0 1 3 10Zm7 7a7 7 0 0 1-6.326-4h12.652A7 7 0 0 1 10 17Z"/></svg>
